X: '1'
T:Gemma's Cascade
C:Gerry Gudzio
N:September 21, 2015
R:waltz
M:3/4
L:1/4
K:Dmix
A2G | F>GF | B>cB | A3 | A2G | F>GF | C>DC | D3 | A2G | F>GF |
B>cB | A3 | B>cB | A>BA | G>AG | F>GF | C>DC | B,>CB, | D3- | D3 :|
K:Dmaj
E>EE | FE2 | D2F | F3 | E>EE | FE2 | D2C | B,3 | E>EE |
FE2 | D2F | F3 | G>AG | F>GF | E>FE | D>ED | C>DC | B,>CB, | D3 ||
